X:28
T:Brian O'Lynn (x3)
R:Jig
M:6/8
Q:3/8=100
K:Ador
|: cBc A2G | EcB cde | dcA A2G | cde fed
 | cBc A2G | EcB cde | dcA AGE | GED D3 :|
|: g2g ged | cAB c2d | eaa age | ed^c def
 | g2g ged | cAB cde | fed cAG | EAA A3 :|
%
|: cBc A2G | EcB cde | dcA A2G | cde fed
 | cBc A2G | EcB cde | dcA AGE | GED D3 :|
|: g2g ged | cAB c2d | eaa age | ed^c def
 | g2g ged | cAB cde | fed cAG | EAA A3 :|
%
|: cBc A2G | EcB cde | dcA A2G | cde fed
 | cBc A2G | EcB cde | dcA AGE | GED D3 :|
|: g2g ged | cAB c2d | eaa age | ed^c def
 | g2g ged | cAB cde | fed cAG | EAA A3 :|

